svg/system/choice_fill.svg

<?xml version="1.0" encoding="UTF-8"?>
<svg width="24px" height="24px" viewBox="0 0 24 24" version="1.1" xmlns="http://www.w3.org/2000/svg" xmlns:xlink="http://www.w3.org/1999/xlink">
    <title>choice_fill</title>
    <g id="Icon" stroke="none" stroke-width="1" fill="none" fill-rule="evenodd">
        <g id="System" transform="translate(-336.000000, -528.000000)">
            <g id="choice_fill" transform="translate(336.000000, 528.000000)">
                <path d="M24,0 L24,24 L0,24 L0,0 L24,0 Z M12.5935,23.2578 L12.5819,23.2595 L12.5109,23.295 L12.4919,23.2987 L12.4767,23.295 L12.4057,23.2595 C12.3958,23.2564 12.387,23.259 12.3821,23.2649 L12.378,23.2758 L12.3609,23.7031 L12.3659,23.7235 L12.3769,23.7357 L12.4805,23.8097 L12.4953,23.8136 L12.5071,23.8097 L12.6107,23.7357 L12.6233,23.7197 L12.6267,23.7031 L12.6096,23.2758 C12.6076,23.2657 12.601,23.2593 12.5935,23.2578 Z M12.8584,23.1453 L12.8445,23.1473 L12.6598,23.2397 L12.6499,23.2499 L12.6472,23.2611 L12.6651,23.6906 L12.6699,23.7034 L12.6784,23.7105 L12.8793,23.8032 C12.8914,23.8069 12.9022,23.803 12.9078,23.7952 L12.9118,23.7812 L12.8777,23.1665 C12.8753,23.1546 12.8674,23.147 12.8584,23.1453 Z M12.143,23.1473 C12.1332,23.1424 12.1222,23.1453 12.1156,23.1526 L12.1099,23.1665 L12.0758,23.7812 C12.0751,23.7927 12.0828,23.8019 12.0926,23.8046 L12.1083,23.8032 L12.3092,23.7105 L12.3186,23.7024 L12.3225,23.6906 L12.3404,23.2611 L12.3372,23.2485 L12.3278,23.2397 L12.143,23.1473 Z" id="MingCute" fill-rule="nonzero"></path>
                <path d="M3,6 C3,4.34315 4.34315,3 6,3 L15,3 C16.7368,3 18.3013,3.73798 19.397,4.91749 C19.7161,4.70505 20.0407,4.50232 20.3699,4.30581 C20.8502,4.03317 21.4606,4.20151 21.7332,4.68181 C22.0058,5.16191 21.8371,5.77232 21.3572,6.04512 C21.2523,6.1056 20.4811,6.59853 20.4958,6.58872 C20.82,7.32664 21,8.1423 21,9 L21,18 C21,19.6569 19.6569,21 18,21 L6,21 C4.34315,21 3,19.6569 3,18 L3,6 Z M19.6561,7.17404 C19.4077,6.54113 19.034,5.97116 18.5655,5.49467 C18.0683,5.85298 17.4938,6.29041 16.8763,6.80392 C15.2339,8.16978 13.2624,10.0944 11.6373,12.5222 C11.0198,11.718 10.4108,11.1421 9.89137,10.7374 C9.50643,10.4375 9.17321,10.2335 8.92567,10.1008 C8.7796,10.0225 8.6308,9.94793 8.47466,9.8916 C7.95507,9.70441 7.38211,9.97388 7.19492,10.4935 C7.00899,11.0095 7.27356,11.5783 7.78626,11.7694 C7.81053,11.7791 8.15598,11.9207 8.66216,12.315 C9.24003,12.7653 10.0382,13.5535 10.8076,14.872 C10.9879,15.1809 11.3195,15.3701 11.6772,15.367919 C12.035,15.3658 12.3643,15.1727 12.5409,14.8616 C14.1253,12.0705 16.3276,9.86147 18.1551,8.34166 C18.7013,7.88744 19.2109,7.49724 19.6561,7.17404 Z" id="形状" fill="#09244B"></path>
            </g>
        </g>
    </g>
</svg>

<svg xmlns="http://www.w3.org/2000/svg" width="24" height="24"><g fill="none" fill-rule="evenodd"><path d="M24 0v24H0V0h24ZM12.594 23.258l-.012.002-.071.035-.02.004-.014-.004-.071-.036c-.01-.003-.019 0-.024.006l-.004.01-.017.428.005.02.01.013.104.074.015.004.012-.004.104-.074.012-.016.004-.017-.017-.427c-.002-.01-.009-.017-.016-.018Zm.264-.113-.014.002-.184.093-.01.01-.003.011.018.43.005.012.008.008.201.092c.012.004.023 0 .029-.008l.004-.014-.034-.614c-.003-.012-.01-.02-.02-.022Zm-.715.002a.023.023 0 0 0-.027.006l-.006.014-.034.614c0 .012.007.02.017.024l.015-.002.201-.093.01-.008.003-.011.018-.43-.003-.012-.01-.01-.184-.092Z"/><path fill="#09244B" d="M3 6a3 3 0 0 1 3-3h9c1.737 0 3.301.738 4.397 1.917.32-.212.644-.415.973-.611a1 1 0 1 1 .987 1.74c-.105.06-.876.553-.861.543A5.98 5.98 0 0 1 21 9v9a3 3 0 0 1-3 3H6a3 3 0 0 1-3-3V6Zm16.656 1.174a5.005 5.005 0 0 0-1.09-1.68 30.96 30.96 0 0 0-1.69 1.31c-1.642 1.366-3.614 3.29-5.239 5.718a9.858 9.858 0 0 0-1.746-1.785 6.858 6.858 0 0 0-.965-.636 3.414 3.414 0 0 0-.451-.21 1 1 0 0 0-.689 1.878c.025.01.37.152.876.546.578.45 1.376 1.239 2.146 2.557a1 1 0 0 0 1.733-.01c1.584-2.792 3.787-5 5.614-6.52a29.008 29.008 0 0 1 1.501-1.168Z"/></g></svg>
